X: 35201
T: Rope, The
R: waltz
M: 3/4
K: Dmajor
A2 G2|F3 G A2|D4 d2|c3 d e2|A4 G2|
F3 G A2|D4 F2|E6-|E2 A2 G2|
F3 G A2|D4 d2|c3 d e2|A4 G2|
F3 G F2|E3 F E2|D6-|D2 A2 d2||
f4 e2|d4 c2|d2 c2 B2|A6|
g4 f2|e4 d2|e6-|e2 d2 e2|
f4 e2|d4 c2|d2 c2 B2|A4 G2|
F3 G F2|E3 F E2|D6-|D2||

